pieces/bq.svg

<svg xmlns="http://www.w3.org/2000/svg" width="45" height="45"><g stroke="#000" stroke-width="1.5" stroke-linecap="round" stroke-linejoin="round"><path d="M9 26c8.5-1.5 21-1.5 27 0l2.5-12.5L31 25l-.3-14.1-5.2 13.6-3-14.5-3 14.5-5.2-13.6L14 25 6.5 13.5 9 26z" stroke-linecap="butt"/><path d="M9 26c0 2 1.5 2 2.5 4 1 1.5 1 1 .5 3.5-1.5 1-1 2.5-1 2.5-1.5 1.5 0 2.5 0 2.5 6.5 1 16.5 1 23 0 0 0 1.5-1 0-2.5 0 0 .5-1.5-1-2.5-.5-2.5-.5-2 .5-3.5 1-2 2.5-2 2.5-4-8.5-1.5-18.5-1.5-27 0zM11.5 30c3.5-1 18.5-1 22 0M12 33.5c6-1 15-1 21 0"/><circle cx="6" cy="12" r="2"/><circle cx="14" cy="9" r="2"/><circle cx="22.5" cy="8" r="2"/><circle cx="31" cy="9" r="2"/><circle cx="39" cy="12" r="2"/><path d="M11 38.5a35 35 1 0023 0" fill="none" stroke-linecap="butt"/><g fill="none" stroke="#fff"><path d="M11 29a35 35 1 0123 0M12.5 31.5h20M11.5 34.5a35 35 1 0022 0M10.5 37.5a35 35 1 0024 0"/></g></g></svg>

<?xml version="1.0" encoding="utf-8" standalone="no"?>
<!DOCTYPE svg PUBLIC "-//W3C//DTD SVG 1.1//EN"
"http://www.w3.org/Graphics/SVG/1.1/DTD/svg11.dtd">
<svg xmlns="http://www.w3.org/2000/svg" version="1.1" width="45"
height="45">
  <g style="fill:#000000;stroke:#000000;stroke-width:1.5; stroke-linecap:round;stroke-linejoin:round">

    <path d="M 9,26 C 17.5,24.5 30,24.5 36,26 L 38.5,13.5 L 31,25 L 30.7,10.9 L 25.5,24.5 L 22.5,10 L 19.5,24.5 L 14.3,10.9 L 14,25 L 6.5,13.5 L 9,26 z"
    style="stroke-linecap:butt;fill:#000000" />
    <path d="m 9,26 c 0,2 1.5,2 2.5,4 1,1.5 1,1 0.5,3.5 -1.5,1 -1,2.5 -1,2.5 -1.5,1.5 0,2.5 0,2.5 6.5,1 16.5,1 23,0 0,0 1.5,-1 0,-2.5 0,0 0.5,-1.5 -1,-2.5 -0.5,-2.5 -0.5,-2 0.5,-3.5 1,-2 2.5,-2 2.5,-4 -8.5,-1.5 -18.5,-1.5 -27,0 z" />
    <path d="M 11.5,30 C 15,29 30,29 33.5,30" />
    <path d="m 12,33.5 c 6,-1 15,-1 21,0" />
    <circle cx="6" cy="12" r="2" />
    <circle cx="14" cy="9" r="2" />
    <circle cx="22.5" cy="8" r="2" />
    <circle cx="31" cy="9" r="2" />
    <circle cx="39" cy="12" r="2" />
    <path d="M 11,38.5 A 35,35 1 0 0 34,38.5"
    style="fill:none; stroke:#000000;stroke-linecap:butt;" />
    <g style="fill:none; stroke:#ffffff;">
      <path d="M 11,29 A 35,35 1 0 1 34,29" />
      <path d="M 12.5,31.5 L 32.5,31.5" />
      <path d="M 11.5,34.5 A 35,35 1 0 0 33.5,34.5" />
      <path d="M 10.5,37.5 A 35,35 1 0 0 34.5,37.5" />
    </g>
  </g>
</svg>
